X:1
T:Title
%%score 1 2 3
L:1/8
Q:1/4=120
M:2/4
K:G
V:1 treble nm="Grand Piano"
V:2 bass nm="Grand Piano, Melody"
V:3 bass nm="Grand Piano"
V:1
 B2 G2 | B2 d2 | d2 A2 | BA G2 | G3 A | B2 c2 | d2 ed | d4 | B2 G2 | B2 d2 | d2 A2 | BA G2 | G3 A | %13
 B2 c2 | d2 ed | d4 | g3 f | g2 d2 | c3 d | e2 d2 | GA Bc | d2 g2 | A2 GA | B4 | B2 G2 | B2 d2 | %26
 d2 A2 | BA G2 | G3 A | B2 c2 | d2 ed | B4 |] %32
V:2
 G,2 G,2 | E,2 G,2 | D,2 D,E, | G,A, B,2 | D3 E | B,2 G,2 | A,2 E,F, | G,4 | G,2 G,2 | E,2 G,2 | %10
 D,2 D,E, | G,A, B,2 | D3 E | B,2 G,2 | A,2 E,F, | G,4 | D3 C | B,C D2 | G3 D | E2 D2 | G2 D2 | %21
 B,2 G,2 | A,2 E,F, | G,4 | G,2 G,2 | E,2 G,2 | D,2 D,E, | G,A, B,2 | D3 E | B,2 G,2 | A,2 E,F, | %31
 G,4 |] %32
V:3
 G,2 G,2 | B,2 G,2 | A,2 D,2 | G,F, E,2 | D,3 E, | E,2 G,2 | D2 B,A, | G,4 | G,2 G,2 | B,2 G,2 | %10
 A,2 D,2 | G,F, E,2 | D,3 E, | E,2 G,2 | D2 B,A, | G,4 | G,3 G, | G,2 G,2 | G,3 D, | E,2 G,2 | %20
 G,2 G,2 | G,2 B,2 | D2 B,A, | G,4 | G,2 G,2 | B,2 G,2 | A,2 D,2 | G,F, E,2 | D,3 E, | E,2 G,2 | %30
 D2 B,A, | G,4 |] %32

